X: 125
T: Little Willie leaps
T: (All God's chillun got rhythm)
M: 4/4
L: 1/8
C: Miles Davis
Q: 1/4=200
%%staves (chords melody)
K: C
%%text (Up)
%%vskip 20
P: A
V: chords
"F6"x4 "Dm7"x4 | "Gm7"x4 "C7"x4 | "Am7"x4 "D7"x4 | "Gm7"x4 "C7"x4 |
"F6"x4 "Dm7"x4 | "Gm7"x4 "C7"x4 | "Am7"x4 x4 | "D7"x4 x4 ||
V: melody
zCFG ABAF | G2zG ABAG | cBAG ^F_edc | BGF^D E_dcB |
A2z2 z3A | B^CDF AGEC | c2Ac ^GEz2 | ^FAc_e d=B (3cdc |
P: B
V: chords
"Bm7b5"x4 "E7"x4 | "Am7"x4 "D7"x4 | "Gm7"x4 "C7"x4 | "F6"x4 x4 |
"Em7b5"x4 "A7"x4 | "Dm7"x4 x4 | "G7"x4 x4 | "C7"x4 x4 ||
V: melody
dc=BA ^G=B,DF/=G/ | Ec=BA ^GFED | GABG A/B/A/G/ _GE | F2z2 zcAG |
ED ^C/E/G/A/ (3BcB AE | F2DE FGED | ^C2z2z4 | (3d_ed _dc BAG2 ||
P: A
V: chords
"F6"x4 "Dm7"x4 | "Gm7"x4 "C7"x4 | "Am7"x4 "D7"x4 | "Gm7"x4 "C7"x4 |
"F6"x4 "Dm7"x4 | "Gm7"x4 "C7"x4 | "Am7"x4 x4 | "D7"x4 x4 ||
V: melody
zCFG ABAF | G2zG ABAG | cBAG ^F_edc | BGF^D E_dcB |
A2z2 z3A | B^CDF AGEC | c2Ac ^GEz2 | ^FAc_e d=B (3cdc |
P: B
V: chords
"Bm7b5"x4 "E7"x4 | "Am7"x4 "D7"x4 | "Gm7"x4 "C7"x4 | "F6"x4 x4 |
"Gm7"x4 x4 | "C7"x4 x4 | "F6"x4 x4 | x4 x4 |]
V: melody
dc=BA ^G=B,DF/=G/ | Ec=BA ^GFED | GABG A/B/A/G/ _GE | F2z2 z2cB |
z4 z^CDF | AA_AA GG_GG | F2z2 z4 | z8 |]
